!!!COM: Scarlatti, Domenico
!!!CDT: 1685-1757
!!!OTL: Sonata in C major, L.3, K.502
!!!SCT: K. 502
!!!SCT: L. 3
!!!OMD: Allegro ([quarter-dot]=72)
**kern	**kern	**dynam
*staff2	*staff1	*staff1/2
*Icemba	*Icemba	*
*I"L.3 (K.502)	*I"L.3 (K.502)	*
*>[A,A,B,B]	*>[A,A,B,B]	*>[A,A,B,B]
*>norep[A,B]	*>norep[A,B]	*>norep[A,B]
*>A	*>A	*>A
*clefF4	*clefG2	*
*k[]	*k[]	*
*C:	*C:	*
*M3/8	*M3/8	*
*MM108	*MM108	*
=1-	=1-	=1-
8C'^	8r	f
8r	8ee' 8gg'L	.
8r	8ee' 8gg'J	.
=2	=2	=2
4.r	8ee'^ 8gg'^L	.
.	8cc' 8ee'	.
.	8ee' 8gg'J	.
=3	=3	=3
4.r	8ee'^ 8gg'^L	.
.	8cc' 8ee'	.
.	8ee' 8gg'J	.
=4	=4	=4
4.r	8ee'^ 8gg'^L	.
.	8a' 8aa'	.
.	8dd' 8ff'J	.
=5	=5	=5
4.r	8g'^ 8gg'^L	.
.	8cc' 8ee'	.
.	8f' 8ff'J	.
=6	=6	=6
4.r	8b'^ 8dd'^L	.
.	8e' 8ee'	.
.	8a' 8cc'J	.
!!LO:LB:g=z
=7	=7	=7
4.r	8f'^ 8dd'^L	.
.	8g' 8b'	.
.	8a' 8cc'J	.
=8	=8	=8
8r	8g' 8b'L	.
8G' 8g'L	8gg'	.
8E' 8e'J	8gg'J	.
=9	=9	=9
8C' 8c'L	8gg'L	.
8AA' 8A'	(8.ggT^	.
8FF' 8F'J	.	.
.	32ffLL	.
.	32eeJJJ	.
=10	=10	=10
8DD' 8D'	8ff'L)	.
8F' 8f'L	8ff'	.
8D' 8d'J	8ff'J	.
=11	=11	=11
8BB' 8B'L<	8ff'L	.
8GG' 8G'	(8.ffT^	.
8EE' 8E'J	.	.
.	32eeLL	.
.	32ddJJJ	.
=12	=12	=12
4CC^ 4C^	8ee')	.
.	(24cccLL	.
.	24bb	.
.	24aaJ	.
8c^ 8e^ [8g^	8gg'J)	.
!!LO:LB:g=z
=13	=13	=13
*^	*	*
4.d^ 4.g^]	(8GL	8r	.
*	*	*Xtuplet	*
.	8A	(24ggLL	.
.	.	24ff	.
.	.	24eeJ	.
.	8BJ)	8dd'J)	.
=14	=14	=14	=14
4.c^<\ 4.g^<\	(8eL>	8r	.
.	8d	(24cccLL	.
.	.	24bb	.
.	.	24aaJ	.
.	8eJ)	8gg'J)	.
=15	=15	=15	=15
4.d^ 4.g^	(8GL	8r	.
.	8A	(24ggLL	.
.	.	24ff	.
.	.	24eeJ	.
.	8BJ)	8dd'J)	.
*v	*v	*	*
=16	=16	=16
8c' 8g'	8ee'L	.
*clefG2	*	*
8e' 8ee'L	8ccc'	.
8c' 8cc'J	8ccc'J	.
*clefF4	*	*
=17	=17	=17
8A' 8a'L	8ccc'L	.
8F#' 8f#'	(8.cccT^	.
8D' 8d'J	.	.
.	32bbLL	.
.	32cccJJJ	.
=18	=18	=18
8BB' 8B'	8ddd'L)	.
*clefG2	*	*
8d' 8dd'L	8bb'	.
8B' 8b'J	8bb'J	.
*clefF4	*	*
!!LO:LB:g=z
=19	=19	=19
8G' 8g'L	8bb'L	.
8E' 8e'	(8.bbt^	.
8C' 8c'J	.	.
.	32aaLL	.
.	32bbJJJ	.
=20	=20	=20
8AA' 8A'	8ccc'L)	.
*clefG2	*	*
8c' 8cc'L	8aa'	.
8A' 8a'J	8aa'J	.
*clefF4	*	*
=21	=21	=21
8F# 8f#L	8aa'L	.
8D' 8d'	(8.aaT^	.
8BB' 8B'J	.	.
.	32ggLL	.
.	32aaJJJ	.
=22	=22	=22
8GG' 8G'	8bb'L)	.
*	*tuplet	*
(8AL	(24ggL	.
.	24ff#	.
.	24eeJ	.
*	*Xtuplet	*
8BJ)	8dd'J)	.
=23	=23	=23
*^	*	*
4.A^ 4.d^	(8DL	8r	.
.	8E	(24ddLL	.
.	.	24cc	.
.	.	24bJ	.
.	8F#J)	8a'J)	.
=24	=24	=24	=24
4.G^\ 4.d^\	(>8BL>	8r	.
.	8A	(24ggLL	.
.	.	24ff#	.
.	.	24eeJ	.
.	8BJ)	8dd'J)	.
!!LO:LB:g=z
=25	=25	=25	=25
4.A^ 4.d^	(8DL	8r	.
.	8E	(24ddLL	.
.	.	24cc	.
.	.	24bJ	.
.	8F#J)	8a'J)	.
=26	=26	=26	=26
4.G^\ 4.d^\	(>8BL>	8r	.
.	8A	(24ggLL	.
.	.	24ff#	.
.	.	24eeJ	.
.	8BJ)	8dd'J)	.
=27	=27	=27	=27
*	*	*tuplet	*
*	*	*Xbrackettup	*
4.c^	(8CL	24r	.
.	.	(24eeLL	.
.	.	24ff#JJ	.
*	*	*Xtuplet	*
.	8D	24ggLL	.
.	.	24aa	.
.	.	24bbJ	.
.	8EJ)	8ccc'J)	.
*v	*v	*	*
=28	=28	=28
*	*^	*
(8F#L	(8ddL	4.dd^	.
8D	8ccc	.	.
8GJ	8bbJ	.	.
*	*v	*v	*
=29	=29	=29
8C'L)	8cc' 8aa'L)	.
8D'	8b' 8gg'	.
8DD'J	8a' 8ff#'J	.
=30	=30	=30
4GG^	8g^ (8gg^L	> ]
.	8dd)	.
8r	8dd'J	]
!!LO:LB:g=z
=31	=31	=31
8r	(8ddL	mf
8g'L	8b-)	.
8g'J	8dd'J	.
=32	=32	=32
*	*^	*
8g'L	8r	[4.dd^	.
8g'	(8dddL	.	.
8g'J	8bb-J	.	.
=33	=33	=33	=33
(8gL	8ff#^	4dd]	.
8e-)	[4gg)	.	.
8c'J	.	8ee-'	.
=34	=34	=34	=34
(8B-'L	4gg]	(8cc#^L	.
8GJ)	.	8dd)	.
8r	8r	8dd'J	.
*	*v	*v	*
=35	=35	=35
8r	(8ddL	.
8g'L	8b-)	.
8g'J	8dd'J	.
=36	=36	=36
*	*^	*
8g'L	8r	[4.dd^	.
8g'	(8dddL	.	.
8g'J	8bb-J	.	.
=37	=37	=37	=37
(8gL	8ff#^	4dd]	.
8e-)	[4gg)	.	.
8c'J	.	8ee-'	.
!!LO:PB:g=z
=38	=38	=38	=38
(8B-^L	4gg]	(8cc#^L	.
8G)	.	8dd)	.
8G'J	8bb-	8dd'J	.
*	*v	*v	*
=39	=39	=39
8C (8cL	8cc (8aaL	<
8D 8d)	8a 8ff#)	.
8E-' 8e-'J	8b-' 8gg'J	.
=40	=40	=40
8C (8cL	8cc (8aaL	.
8D 8d)	8a 8ff#)	.
8E-' 8e-'J	8b-' 8gg'J	.
=41	=41	=41
8C (8cL	8cc (8aaL	.
8D 8d)	8a 8ff#)	.
8E-' 8e-'J	8b-' 8gg'J	.
=42	=42	=42
8C (8cL	8cc (8aaL	f
8D 8d)	8a 8ff#)	.
8E-' 8e-'J	8b-' 8gg'J	.
=43	=43	=43
8C (8cL	8cc (8aaL	.
8D 8d)	8a 8ff#)	.
8E-' 8e-'J	8b-' 8gg'J	.
=44	=44	=44
8C (8cL	8cc (8aaL	.
8D 8d)	8a 8ff#)	.
8E-' 8e-'J	8b-' 8gg'J	.
!!LO:LB:g=z
=45	=45	=45
*^	*	*
4.d^	(8DL	8a' 8aa'	.
*	*	*tuplet	*
.	8En	(24ddLL	.
.	.	24cc	.
.	.	24bnJ)	.
*	*	*Xtuplet	*
.	8F#J)	8a'J	.
=46	=46	=46	=46
4.G^\ 4.d^\	(>8BL>	8r	.
.	8A	(24ggLL	.
.	.	24ff#	.
.	.	24eeJ	.
.	8BJ)	8dd'J)	.
=47	=47	=47	=47
4.A^ 4.d^	(8DL	8r	.
.	8E	(24ddLL	.
.	.	24cc	.
.	.	24bJ	.
.	8F#J)	8a'J)	.
=48	=48	=48	=48
4.G^\ 4.d^\	(>8BL>	8r	.
.	8A	(24ggLL	.
.	.	24ff#	.
.	.	24eeJ	.
.	8BJ)	8dd'J)	.
=49	=49	=49	=49
*	*	*tuplet	*
4.c	(8CL	24r	.
.	.	(24ggLL	.
*	*	*Xtuplet	*
.	.	24ff#JJ	.
.	8D	24eeLL	.
.	.	24ff#	.
.	.	24ggJJ	.
.	8EJ	24aaLL	.
.	.	24bb	.
.	.	24cccJJ	.
*v	*v	*	*
=50	=50	=50
*	*^	*
8F#L	8ddL	4.dd^	.
8D	8ccc	.	.
8GJ)	8bbJ)	.	.
*	*v	*v	*
!!LO:LB:g=z
=51	=51	=51
(8CL	8cc^ (8aa^L	.
8D')	8b 8gg)	.
8DD'J	8a' 8ff#'J	.
=52	=52	=52
*	*^	*
4GG	16.raa	8re	.
!	!	!	!LO:DY:rj
.	(32ff#	.	mf
.	[4gg)	16.rg	.
.	.	(32dd	.
8g'	.	16.eeLL	.
.	.	32bJJk	.
=53	=53	=53	=53
8g'L	16.ggLL]	4.cc)	.
.	32bb'JJk	.	.
.	(8qqbb^	.	.
(8g	4aaM)	.	.
8f#J)m	.	.	.
=54	=54	=54	=54
4G	16.raa	8re	.
.	(32ff#'	.	.
.	[4gg)	16.rg	.
.	.	(32dd	.
8g'	.	16.eeLL	.
.	.	32bJJk	.
=55	=55	=55	=55
8g'L	16.ggLL]	4.cc)	.
.	32bb'JJk	.	.
.	(8qqbb^	.	.
(8g	4aaM)	.	.
8f#J)m	.	.	.
*	*v	*v	*
!!LO:LB:g=z
=56	=56	=56
*^	*	*
4.e	(8GL	16.r	.
.	.	(32cccLLK	.
.	8A	16.bb	.
.	.	32ff#k	.
.	8BJ)	16.gg	.
.	.	32ddJJk	.
=57	=57	=57	=57
4.c	(8CL	16.eeLL<	.
.	.	32bk	.
.	8D	16.cc	.
.	.	32gk	.
.	8EJ	16.a	.
.	.	32eJJk	.
*v	*v	*	*
=58	=58	=58
*	*^	*
8DL	16.f#LL	4ryy	.
.	32ak	.	.
8C	16.d	.	.
.	32f#k	.	.
8BBJ	16.g	[8g	.
.	32bJJk	.	.
=59	=59	=59	=59
8CL	16.aLL	4g]	.
.	32ccJk	.	.
8D')	8b')	.	.
8DD'J	8a'MJ	8f#'	.
=60	=60	=60	=60
(8GGL	(16.gLL	8gL	.
.	32bJk	.	.
8CC') 8C'	8a'	8g)	.
8DD' 8D'J	8a'J	8gJ	.
*	*v	*v	*
=61	=61	=61
(8EE 8EL	16.r	.
!	!	!LO:HP:t=cres.
.	(>32b/	<
8CC') 8C'	8g' 8a'L)	.
8DD' 8D'J	8g' 8a'J	.
!!LO:LB:g=z
=62	=62	=62
(8EE 8EL	16.r	.
.	(>32b/	.
8CC') 8C'	8g' 8a'L)	.
8DD' 8D'J	8g' 8a'J	.
=63	=63	=63
*	*^	*
*	*tuplet	*	*
(24ELL	(24aLL	4g	.
24D	24b	.	.
24CJ	24ccJ	.	.
8D')	8b')	.	.
8DD'J	8aT'J	8f#'	.
*	*v	*v	*
=64	=64	=64
(8GGL	8g (8ggL<	f
8CC') 8C'	8g' 8a')	.
8DD' 8D'J	8g' 8a'J	.
=65	=65	=65
(8EE 8EL	(8ggL	.
8CC') 8C'	8g' 8a')	.
8DD' 8D'J	8g' 8a'J	.
=66	=66	=66
(8EE 8EL	(8ggL	.
8CC') 8C'	8g' 8a')	.
8DD' 8D'J	8g' 8a'J	.
=67	=67	=67
*	*^	*
*	*Xtuplet	*	*
(24ELL	(24aLL	4g	.
24D	24b	.	.
24CJ)	24ccJ	.	.
8D'	8b')	.	.
8DD'J	8aT'J	8f#'	.
*	*v	*v	*
!!LO:LB:g=z
=68	=68	=68
4GG	16.g'LL	.
.	(32ff#k	.
.	16.gg	.
.	32ddk	.
(<([8G	16.ee	.
.	32bJJk	.
=69	=69	=69
*^	*	*
4.A)	8GL]	16.ccLL	.
.	.	32eek	.
.	8F#	16.dd	.
.	.	32bk	.
.	8DJ)	16.cc	.
.	.	32aJJk	.
=70	=70	=70	=70
*	*	*^	*
4.G	(8GGL	16.r	16.bLL)	.
.	.	(32dd	32ddk	.
.	8AA	8..ddL	16.f#	.
.	.	.	32aJk	.
.	8BBJ	.	[8gJ	.
.	.	32bJkk	.	.
*v	*v	*	*	*
=71	=71	=71	=71
8CL	16.aLL	4g]	.
.	32ccJk	.	.
8D')	8b')	.	.
8DD'J	8a'JM	8f#'	.
*	*v	*v	*
=72	=72	=72
4.GG	4.gMM	.
!!LO:LB:g=z
=73:|!|:	=73:|!|:	=73:|!|:
*>B	*>B	*>B
*^	*^	*
(8GL	[4.G^	8r	8r	.
8g	.	[4gg	(8ggL	p
8fnJ	.	.	8bJ	.
=74	=74	=74	=74	=74
8eL	4.G]	4.gg_	8ccL)	.
8d	.	.	(8.ccT>	.
8cJ)	.	.	.	.
.	.	.	32bLL	.
.	.	.	32ccJJJ	.
=75	=75	=75	=75	=75
(8GL	[4.G	8gg]	8dd)	.
8g	.	[4gg	(8ggL	.
8fJ	.	.	8bJ	.
=76	=76	=76	=76	=76
8eL	4.G]	4.gg]	8ccL)	.
8d	.	.	(8.ccT>	.
8cJ	.	.	.	.
.	.	.	32bLL	.
.	.	.	32ccJJJ	.
*	*	*v	*v	*
=77	=77	=77	=77
8ryy	8G')	8dd')	.
*clefG2	*clefG2	*	*
.	.	(32qqdd	.
(8bL	(4d	4ddT)	< [
.	.	.	.
8aJ	.	.	[
=78	=78	=78	=78
8g#')	8e')	8dd'L	mf
.	.	(8ggnq	.
(8bL	(4d	(8.ff)	.
8aJ	.	.	.
.	.	16eeJk	.
!!LO:LB:g=z
=79	=79	=79	=79
8g#')	8e')	8dd'L)	.
.	.	(8ggnq	.
!	!	!	!LO:HP:t=cres.
(8bL	(4d	(8.ff)	<
8aJ	.	.	.
.	.	16eeJk	.
=80	=80	=80	=80
8g#')	8e')	8dd'L)	.
(8bL	(4d	(8.bb	.
8aJ	.	.	.
.	.	16aaJk	.
=81	=81	=81	=81
*	*	*^	*
8g#')	8e')	8b	16.gg#LL	.
.	.	.	32ffnk	.
*clefF4	*clefF4	*	*	*
4ryy	(<8EL	4ryy	16.ee	.
.	.	.	32ddk	.
.	8G#J	.	16.cc	.
.	.	.	32bJJk	.
*v	*v	*	*	*
*	*v	*v	*
=82	=82	=82
8A'L)	16.ccLL)	f
.	(32gg#k	.
8A' 8c' 8e'	16.aa	.
.	32eek	.
8A' 8c' 8e'J	16.ff	.
.	32ccJJk	.
=83	=83	=83
*^	*	*
4.B^ 4.e^	(8AL	8dd'L)	.
.	8G#	(8.bbt	.
.	8EJ	.	.
.	.	32aaLL	.
.	.	32bbJJJ	.
*v	*v	*	*
!!LO:LB:g=z
=84	=84	=84
8A' 8c' 8e'L)	16.cccLL	f
.	32gg#k	p
8A' 8c' 8e'	16.aa	.
.	32eek	.
8A 8c 8eJ	16.ff	.
.	32ccJJk	.
=85	=85	=85
*^	*	*
4.B^ 4.e^	(8AL	8dd'L)	.
.	8G#	(8.bbt	<
.	8EJ	.	.
.	.	32aaLL	.
.	.	32bbJJJ	[[
*v	*v	*	*
=86	=86	=86
8A' 8c'L)	16.cccLL	f
.	32ff#'k	.
(<8A' 8c'	16.gg	.
.	32ddk	.
8Gn 8cJ	16.ee-	.
.	32ccJJk	.
=87	=87	=87
*^	*	*
4.c^	8F#L	8dd'L)	.
.	8E	(8.aat	.
.	8DJ	.	.
.	.	32ggLL	.
.	.	32aaJJJ	.
*v	*v	*	*
=88	=88	=88
8G' 8B-'L)	16.bb-LL	f
.	32ff#K	p
8G' 8B-' 8d'	16.gg	.
.	32ddk	.
8G' 8B-' 8d'J	16.ee-	.
.	32b-JJk	.
!!LO:LB:g=z
=89	=89	=89
*^	*	*
4.A^ 4.d^	(8GL	8cc'L)	.
.	8F#	(8.aat	<
.	8DJ	.	.
.	.	32ggLL	.
.	.	32aaJJJ	[[
*v	*v	*	*
=90	=90	=90
8G' 8B-'L)	16.bb-LL	f
.	32eenk	.
(<8G 8B-	16.ff	.
.	32cck	.
8Fn 8B-J	16.dd	.
.	32b-JJk	.
=91	=91	=91
*^	*	*
4.B-^	8EL	8cc'L)	.
.	8D	(8.ggT	.
.	8CJ	.	.
.	.	32ffLL	.
.	.	32ggJJJ	.
*v	*v	*	*
=92	=92	=92
8F' 8A'L)	16.aaLL	f
.	32eek	p
8F' 8A' 8c'	16.ff	.
.	32cck	.
8F' 8A' 8c'J	16.dd	.
.	32aJJk	.
=93	=93	=93
*^	*	*
4.G^ 4.c^	(8FL	8b-'L)	.
.	8E	(8.ggT	<
.	8CJ)	.	.
.	.	32ffLL	.
.	.	32ggJJJ)	[[
*v	*v	*	*
!!LO:LB:g=z
=94||	=94||	=94||
*M2/4	*M2/4	*M2/4
!!!OMD: Allegro (Le crome si valutino come nel 3/8)
*^	*	*
(8FL	4F	(8.aaLm	p
8fJ)	.	.	.
.	.	16ccc'Jk)	.
(8EL	4E	(8.ggLM	<
8eJ)	.	.	.
.	.	16cccJk)	.
=95	=95	=95	=95
(8DL	4D	(8.ffLM	.
8dJ)	.	.	.
.	.	16cccJk)	.
(8CL	4C	(8.eeLm	.
8cJ)	.	.	.
.	.	16cccJk)	.
=96	=96	=96	=96
(8BBnL	4BBn	(8.ddLM	.
8BJ)	.	.	.
.	.	16bbJk)	.
(8AAL	4AA	(8.ccLM	.
8AJ)	.	.	.
.	.	16cccJk)	.
*v	*v	*	*
=97	=97	=97
8GG' 8G'L	8b'L	f
8G' 8g'J	8gg'J	.
8FF' 8F'L	(32aaLLL	.
.	32ggJ	.
.	16ffJ)	.
8F' 8f'J	8aa'J	.
=98	=98	=98
8EE' 8E'L	(32ggLLL	.
.	32ffJ	.
.	16eeJ)	.
8E' 8e'J	8gg'J	.
8DD' 8D'L	(32ffLLL	.
.	32eeJ	.
.	16ddJ)	.
8D' 8d'J	8ff'J	.
!!LO:LB:g=z
=99	=99	=99
8CC' 8C'L<	(32eeLLL	.
.	32ddJ	.
.	16ccJ)	.
8C' 8c'J	8ee'J	.
8BBB' 8BB'L<	(32ddLLL	.
.	32ccJ	.
.	16bJ)	.
8BB' 8B'J	8dd'J	.
=100	=100	=100
8AAA 8AAL	(32ccLLL	.
.	32bJ	.
.	16aJ)	.
8AA' 8A'J	8cc'J	.
8GGG' 8GG'L	(32bLLL<	.
.	32aJ	.
.	16gJ)	.
8GG' 8G'J	8dd'J	.
=101||	=101||	=101||
*M3/8	*M3/8	*M3/8
8GGG' 8GG'L	(16.bLL	p
.	32ddk	<
8AAA' 8AA'	16.cc	.
.	32eek	.
8BBB' 8BB'J	16.dd	.
.	32ffJJk	.
=102	=102	=102
8CC' 8C'L	16.eeLL	.
.	32ggk	.
8DD' 8D'	16.ff	.
.	32aak	.
8EE' 8E'J	16.gg	.
.	32bbJJk	.
=103	=103	=103
8FF' 8F'L	16.aaLL	f >
.	32ggk	.
8GG' 8G'	16.ff	.
.	32eek	.
8AA 8AJ	16.dd	.
.	32ccJJk	]]
!!LO:LB:g=z
=104||	=104||	=104||
*M2/4	*M2/4	*M2/4
8GG' 8G'L	([8ddL)M	p
8G' 8g'J	32ddLL]	.
.	32cc	.
.	32dd	.
.	32eeJJJ)	<
8FF' 8F'L	([8ddLM	.
8F' 8f'J	32ddLL]	.
.	32cc	.
.	32dd	.
.	32eeJJJ)	.
=105	=105	=105
8EE' 8E'L	([8ddLM	.
8E' 8e'J	32ddLL]	.
.	32cc	.
.	32dd	.
.	32eeJJJ)	.
8DD' 8D'L	([8ddLM	.
8D' 8d'J	32ddLL]	.
.	32cc	.
.	32dd	.
.	32eeJJJ)	.
=106	=106	=106
8CC' 8C'L<	([8ddLM	.
8C' 8c'J	32ddLL]	.
.	32cc	.
.	32dd	.
.	32eeJJJ)	.
8BBB' 8BB'L<	([8ddLM	.
8BB' 8B'J	32ddLL]	.
.	32cc	.
.	32dd	.
.	32eeJJJ)	.
!!LO:LB:g=z
=107	=107	=107
8AAA' 8AA'L<	([8ddLM	.
8AA' 8A'J	32ddLL]	.
.	32cc	.
.	32dd	.
.	32eeJJJ)	.
8GGG' 8GG'L<	([8ddLM	.
8GG' 8G'J	32ddLL]	.
.	32ee	.
.	32dd	.
.	32ccJJJ	.
=108||	=108||	=108||
*M3/8	*M3/8	*M3/8
8GGG' 8GG'L	16.bLL	f
.	32ddk	.
8AAA' 8AA'	16.cc	.
.	32eek	.
8BBB' 8BB'J	16.dd	.
.	32ffJJk	.
=109	=109	=109
*	*^	*
8CC' 8C'L	16.reee	16.eeLL)	.
.	([32gg	(32ggk	.
8DD' 8D'	8..ggL]	16.b	.
.	.	32ddJk	.
8EE' 8E'J	.	[8ccJ)	.
.	32eeJkk	.	.
=110	=110	=110	=110
(8FF 8FL	16.ddLL	4cc]	.
.	32ffJk	.	.
8G')	8ee')	.	.
8GG'J	8dd'J	8b'	.
*	*v	*v	*
!!LO:LB:g=z
=111	=111	=111
4C	16.r	.
!	!	!LO:DY:rj
.	(32bbLL	mf
.	16.ccc	.
.	32ggk	.
*clefG2	*	*
8cc'	16.aa	.
.	32eeJJk	.
=112	=112	=112
8cc'L	16.ffLL	.
.	32eeeJJk)	.
.	(8qqeee^	.
(8cc	4dddM)	.
8bJ)m	.	.
=113	=113	=113
4c	16.r	.
.	(32bbLLK	.
.	16.ccc	.
.	32ggk	.
8cc'	16.aa	.
.	32eeJJk	.
=114	=114	=114
8cc'L	16.ffLL	.
.	32eeeJJk)	.
.	(8qqeee^	.
(8cc	4dddM)	.
8btJ)	.	.
=115	=115	=115
*^	*	*
4.cc	(8cL	16.r	.
.	.	(>32fffLLK	.
.	8d	16.eee	.
.	.	32bbk	.
.	8eJ)	16.ccc	.
.	.	32ggJJk	.
*clefF4	*	*	*
!!LO:LB:g=z
=116	=116	=116	=116
4.f	(8FL	16.aaLL	.
.	.	32eek	.
.	8G	16.ff	.
.	.	32cck	.
.	8AJ	16.dd	.
.	.	32aJJk	.
*v	*v	*	*
=117	=117	=117
8GL	16.bLL	.
.	32ddk	.
8F	16.g	.
.	32bk	.
8EJ	16.cc	.
.	32eeJJk	.
=118	=118	=118
8FL	16.ddLL	.
.	32ffk	.
8G')	16.ee	.
.	32ddk	.
8GG'J	16.cc	.
.	32bJJk	.
=119	=119	=119
*	*^	*
(8CC 8CL	16.ccLL	8ccL	.
.	32eeJk	.	.
8FF') 8F'	8dd')	8cc	.
8GG' 8G'J	8dd'J	8ccJ	.
*	*v	*v	*
=120	=120	=120
8AA (8AL<	16.r	.
.	(32ee	<
8FF' 8F')	8cc' 8dd'L)	.
8GG' 8G'J	8cc' 8dd'J	.
!!LO:LB:g=z
=121	=121	=121
8AA (8AL<	16.r	.
.	(32ee	.
8FF' 8F')	8cc' 8dd'L)	.
8GG' 8G'J	8cc' 8dd'J	.
=122	=122	=122
*	*^	*
*	*tuplet	*	*
(24ALL	(24ddLL	4cc	.
24G	24ee	.	.
24FJ	24ffJ	.	.
8G')	8ee')	.	.
8GG'J	8dd'JM	8b'	.
*	*v	*v	*
=123	=123	=123
8CC 8CL	(8cccL	f
8FF' 8F'	8cc' 8dd')	.
8GG' 8G'J	8cc' 8dd'J	.
=124	=124	=124
8AA (8AL<	(8cccL	.
8FF' 8F')	8cc' 8dd')	.
8GG' 8G'J	8cc' 8dd'J	.
=125	=125	=125
8AA (8AL<	(8cccL	.
8FF' 8F')	8cc' 8dd')	.
8GG' 8G'J	8cc' 8dd'J	.
=126	=126	=126
*	*^	*
*Xtuplet	*Xtuplet	*	*
(24ALL	(24ddLL	4cc	.
24G	24ee	.	.
24FJ	24ffJ	.	.
8G')	8ee')	.	.
8GG'J	8dd'JM	8b'	.
*	*v	*v	*
!!LO:LB:g=z
=127	=127	=127
4CC 4C	16.cc'LL	.
.	(32bbk	.
.	16.ccc	.
.	32ggk	.
(<([<8c	16.aa	.
.	32eeJJk	.
=128	=128	=128
*^	*	*
4.d)	8cL]	16.ffLL	.
.	.	32aak	.
.	8B	16.gg	.
.	.	32eek	.
.	8GJ)	16.ff	.
.	.	32ddJJk	.
=129	=129	=129	=129
*	*	*^	*
4.c	(8CL	4ryy	16.eeLL)	.
.	.	.	(<32ggk	.
.	8D	.	16.b	.
.	.	.	32ddJk	.
.	8EJ	(16.ccLL	[8ccJ)	.
.	.	32eeJJk	.	.
*v	*v	*	*	*
=130	=130	=130	=130
8FL	16.ddLL	4cc]	.
.	32ffJk	.	.
8G')	8ee')	.	.
8GG'J	8dd'J	8b'	.
*	*v	*v	*
=131	=131	=131
4.CC	4.ccM	.
==:|!	==:|!	==:|!
*-	*-	*-
!!!RDF**kern: > = above
!!!RDF**kern: < = below
!!!verovio: beamFrenchStyle 1
!!!URL-vhv: https://verovio.humdrum.org/?file=scarlatti/sonatas/L003K502.krn
!!!URL-pdf: https://github.com/craigsapp/scarlatti-keyboard-sonatas/blob/master/reference-edition/L003K502.pdf
!!!PTL: Domenico Scarlatti: Opere complete per clavicembalo
!!!PED: Longo, Alessandro
!!!PPR: Ricordi
!!!PPP: Milan
!!!PDT: 1906-1913
!!!YEC: 2021 Craig Stuart Sapp
!!!YEM: Licence: (CC BY-NC-SA 4.0) https://creativecommons.org/licenses/by-nc-sa/4.0
!!!ENC: Craig Stuart Sapp
!!!END: 2008/01/22
!!!EED: Craig Stuart Sapp
!!!EEV: 2020/12/18
